X: 10111
T: the ORIGINAL HIGHLAND LADDIE
%R: reel, march
B: "Edinburgh Repository of Music" v.1 p.11 #1
F: http://digital.nls.uk/special-collections-of-printed-music/pageturner.cfm?id=87776133
Z: 2015 John Chambers <jc:trillian.mit.edu>
M: 2/4
L: 1/8
K: A
E |\
A>Bcc | d>Bc2 | cBBA/B/ | cBBA/F/ |\
A>Bcc | d>B c>B | AF FE/F/ | AFF :|
|: e |\
fa ea | d/c/B/A/ c2 | cB BA/B/ | cB Be |\
fa ea | d/c/B/A/ cB | AF FE/F/ | AF F :|
|: e |\
a>bc'c' | d'bc'2 | c'b ba/b/ | c'b ba/f/ |\
f>gaa | d'>b c'>b | a>f fe/f/ | af f :|
|: a/g/ |\
faef | d/c/B/A/ c2 | cB BA/B/ | cB Be |\
f{g}a ea | d/c/B/A/ c>B | AF FE/F | AF F :|
